src/assets/filled/Blend.svg

<svg width="24" height="24" viewBox="0 0 24 24"  xmlns="http://www.w3.org/2000/svg">
<path d="M21.97 12C21.97 15.31 19.28 18 15.97 18C15.2255 18 14.5092 17.8643 13.8511 17.6141C13.5324 17.4929 13.473 17.0851 13.6948 16.8262C14.8368 15.4938 15.47 13.786 15.47 12C15.47 10.2082 14.8311 8.49432 13.6978 7.17467C13.4752 6.91543 13.5342 6.50621 13.8536 6.38494C14.5111 6.13537 15.2264 6 15.97 6C19.28 6 21.97 8.69 21.97 12Z" />
<path d="M13.97 12C13.97 13.77 13.2 15.37 11.97 16.46C10.91 17.42 9.50997 18 7.96997 18C4.65997 18 1.96997 15.31 1.96997 12C1.96997 8.69 4.65997 6 7.96997 6C9.50997 6 10.91 6.58 11.97 7.54C13.2 8.63 13.97 10.23 13.97 12Z" />
</svg>

<?xml version="1.0" encoding="UTF-8"?>
<svg width="24" height="24" viewBox="0 0 24 24" xmlns="http://www.w3.org/2000/svg">
 <path d="m21.97 12c0 3.31-2.69 6-6 6-0.7445 0-1.4608-0.1357-2.1189-0.3859-0.3187-0.1212-0.3781-0.529-0.1563-0.7879 1.142-1.3324 1.7752-3.0402 1.7752-4.8262 0-1.7918-0.6389-3.5057-1.7722-4.8253-0.2226-0.25924-0.1636-0.66846 0.1558-0.78973 0.6575-0.24957 1.3728-0.38494 2.1164-0.38494 3.31 0 6 2.69 6 6z"/>
 <path d="m13.97 12c0 1.77-0.77 3.37-2 4.46-1.06 0.96-2.46 1.54-4 1.54-3.31 0-6-2.69-6-6s2.69-6 6-6c1.54 0 2.94 0.58 4 1.54 1.23 1.09 2 2.69 2 4.46z"/>
</svg>
